X:1
T:[ID 4-51r]
T:[ID 4-51r]
T:Bezeichnung standardisiert: Menuet [mit Trio] Menuetto [mit Trio] Menuet [mit Trio]
T:Urheber unbekannt Datum in der hier transkribierten schriftlichen Quelle: 1796
C:Urheber unbekannt
C:Datum in der hier transkribierten schriftlichen Quelle: 1796
L:1/8
M:3/4
K:D
V:1 treble 
V:1
 A2 | (df)(df)(df) | g4 ec | (df)(df)(df) | e2 A2 A2 | (df)(df)(df) | g4 ec | defgec | d4 :: fg | %10
 a4 ba | (ag)(gf) f2 | a2 a2 ba | (ag)(gf) f2 | (df)(df)(df) | g4 ec | defgec | d6 :| %18
[M:3/4]"^Trio" !fermata!d4 e2 | f3 g a2 | f3 g a2 | ag f2 e2 | d4 e2 | f3 g a2 | a2 (ag)(gf) | %25
 e6 :: f2 (fe)(ed) | d6 | g2 (gf)(fe) | e6 | a2 a2 a2 | b3 a g2 | fafdec | d4 :| %34

